skin/frontend/rwd/dhh/images/question-mark.svg

<?xml version="1.0" encoding="UTF-8" standalone="no"?>
<!-- Generator: Adobe Illustrator 18.1.1, SVG Export Plug-In . SVG Version: 6.00 Build 0)  -->
<svg id="Capa_1" style="enable-background:new 0 0 92 92" xmlns="http://www.w3.org/2000/svg" xml:space="preserve" height="512px" width="512px" version="1.1" y="0px" x="0px" xmlns:xlink="http://www.w3.org/1999/xlink" viewBox="0 0 92 92">
	<path d="m45.386 0.004c-25.403 0.34-45.719 21.211-45.381 46.615 0.34 25.393 21.209 45.715 46.611 45.377 25.398-0.342 45.718-21.213 45.38-46.615-0.34-25.395-21.21-45.716-46.61-45.377zm-0.136 73.996l-0.254-0.004c-3.912-0.116-6.67-2.998-6.559-6.852 0.109-3.788 2.934-6.538 6.717-6.538l0.227 0.004c4.021 0.119 6.748 2.972 6.635 6.937-0.112 3.799-2.893 6.453-6.766 6.453zm16.455-32.659c-0.92 1.307-2.943 2.93-5.492 4.916l-2.807 1.938c-1.541 1.198-2.471 2.325-2.82 3.434-0.275 0.873-0.41 1.104-0.434 2.88l-0.004 0.451h-10.718l0.031-0.907c0.131-3.728 0.223-5.921 1.768-7.733 2.424-2.846 7.771-6.289 7.998-6.435 0.766-0.577 1.412-1.234 1.893-1.936 1.125-1.551 1.623-2.772 1.623-3.972 0-1.665-0.494-3.205-1.471-4.576-0.939-1.323-2.723-1.993-5.303-1.993-2.559 0-4.311 0.812-5.359 2.478-1.078 1.713-1.623 3.512-1.623 5.35v0.457h-11.051l0.02-0.477c0.285-6.769 2.701-11.643 7.178-14.487 2.813-1.811 6.313-2.729 10.397-2.729 5.346 0 9.859 1.299 13.412 3.861 3.6 2.596 5.426 6.484 5.426 11.556 0 2.837-0.896 5.502-2.664 7.924z" fill="#595959"/>
</svg>

<?xml version="1.0" encoding="iso-8859-1"?>
<!-- Generator: Adobe Illustrator 18.1.1, SVG Export Plug-In . SVG Version: 6.00 Build 0)  -->
<svg xmlns="http://www.w3.org/2000/svg" xmlns:xlink="http://www.w3.org/1999/xlink" version="1.1" id="Capa_1" x="0px" y="0px" viewBox="0 0 92 92" style="enable-background:new 0 0 92 92;" xml:space="preserve" width="512px" height="512px">
<g>
	<path d="M45.386,0.004C19.983,0.344-0.333,21.215,0.005,46.619c0.34,25.393,21.209,45.715,46.611,45.377   c25.398-0.342,45.718-21.213,45.38-46.615C91.656,19.986,70.786-0.335,45.386,0.004z M45.25,74l-0.254-0.004   c-3.912-0.116-6.67-2.998-6.559-6.852c0.109-3.788,2.934-6.538,6.717-6.538l0.227,0.004c4.021,0.119,6.748,2.972,6.635,6.937   C51.904,71.346,49.123,74,45.25,74z M61.705,41.341c-0.92,1.307-2.943,2.93-5.492,4.916l-2.807,1.938   c-1.541,1.198-2.471,2.325-2.82,3.434c-0.275,0.873-0.41,1.104-0.434,2.88l-0.004,0.451H39.43l0.031-0.907   c0.131-3.728,0.223-5.921,1.768-7.733c2.424-2.846,7.771-6.289,7.998-6.435c0.766-0.577,1.412-1.234,1.893-1.936   c1.125-1.551,1.623-2.772,1.623-3.972c0-1.665-0.494-3.205-1.471-4.576c-0.939-1.323-2.723-1.993-5.303-1.993   c-2.559,0-4.311,0.812-5.359,2.478c-1.078,1.713-1.623,3.512-1.623,5.35v0.457H27.936l0.02-0.477   c0.285-6.769,2.701-11.643,7.178-14.487C37.947,18.918,41.447,18,45.531,18c5.346,0,9.859,1.299,13.412,3.861   c3.6,2.596,5.426,6.484,5.426,11.556C64.369,36.254,63.473,38.919,61.705,41.341z" fill="#595959"/>
</g>
<g>
</g>
<g>
</g>
<g>
</g>
<g>
</g>
<g>
</g>
<g>
</g>
<g>
</g>
<g>
</g>
<g>
</g>
<g>
</g>
<g>
</g>
<g>
</g>
<g>
</g>
<g>
</g>
<g>
</g>
</svg>
